icons/fever.svg

<svg width="48" height="48" viewBox="0 0 48 48" fill="none" xmlns="http://www.w3.org/2000/svg">
<path fill-rule="evenodd" clip-rule="evenodd" d="M32.3262 8.03733C29.8363 6.73592 27.0041 6 24 6C14.0589 6 6 14.0589 6 24C6 33.9411 14.0589 42 24 42C33.9411 42 42 33.9411 42 24C42 21.7396 41.5833 19.5764 40.8226 17.5832C40.3054 18.0242 39.7151 18.3775 39.0733 18.621C39.6733 20.302 40 22.1129 40 24C40 32.8366 32.8366 40 24 40C15.1634 40 8 32.8366 8 24C8 15.1634 15.1634 8 24 8C26.7224 8 29.2859 8.6799 31.5301 9.87917C31.7471 9.24758 32.0195 8.63045 32.3262 8.03733Z" fill="black"/>
<path d="M14.2364 20.4298C16.2602 21.1812 18.4845 20.6906 20.3968 18.8752C20.7296 19.8644 19.8456 21.9462 17.664 22.2683C15.4824 22.5904 14.0892 21.3415 14.2364 20.4298Z" fill="black"/>
<path fill-rule="evenodd" clip-rule="evenodd" d="M14.8073 22.2328C14.1242 21.7953 13.6237 21.0878 13.7428 20.3501C13.7667 20.2024 13.8554 20.0731 13.9847 19.9978C14.114 19.9225 14.2702 19.909 14.4105 19.9611C16.2287 20.6361 18.2567 20.2174 20.0526 18.5126C20.1764 18.3951 20.3517 18.3488 20.5174 18.39C20.6831 18.4311 20.8163 18.554 20.8707 18.7158C21.1024 19.4046 20.8948 20.3341 20.3905 21.0975C19.8685 21.8877 18.983 22.579 17.737 22.7629C16.5386 22.9399 15.521 22.6899 14.8073 22.2328ZM15.3466 21.3907C15.838 21.7054 16.6078 21.9188 17.591 21.7737C18.5267 21.6355 19.1739 21.1249 19.5561 20.5463C19.6813 20.3569 19.7739 20.1673 19.8391 19.9871C18.3332 21.0698 16.6736 21.4691 15.0663 21.1754C15.1434 21.2474 15.2361 21.3199 15.3466 21.3907Z" fill="black"/>
<path d="M33.325 20.4298C31.3013 21.1812 29.077 20.6906 27.1646 18.8752C26.8319 19.8644 27.7159 21.9462 29.8975 22.2683C32.0791 22.5904 33.4722 21.3415 33.325 20.4298Z" fill="black"/>
<path fill-rule="evenodd" clip-rule="evenodd" d="M32.7542 22.2328C33.4373 21.7953 33.9377 21.0878 33.8187 20.3501C33.7948 20.2024 33.7061 20.0731 33.5768 19.9978C33.4475 19.9225 33.2913 19.909 33.151 19.9611C31.3327 20.6361 29.3048 20.2174 27.5089 18.5126C27.3851 18.3951 27.2098 18.3488 27.0441 18.39C26.8784 18.4311 26.7452 18.554 26.6907 18.7158C26.459 19.4046 26.6666 20.3341 27.171 21.0975C27.693 21.8877 28.5785 22.579 29.8244 22.7629C31.0229 22.9399 32.0404 22.6899 32.7542 22.2328ZM32.2149 21.3907C31.7235 21.7054 30.9537 21.9188 29.9705 21.7737C29.0348 21.6355 28.3875 21.1249 28.0054 20.5463C27.8802 20.3569 27.7875 20.1673 27.7224 19.9871C29.2283 21.0698 30.8879 21.4691 32.4951 21.1754C32.418 21.2474 32.3254 21.3199 32.2149 21.3907Z" fill="black"/>
<path fill-rule="evenodd" clip-rule="evenodd" d="M37 15C38.1046 15 39 14.1046 39 13C39 11.9336 38.3464 10.6298 37.4091 9.39959C37.272 9.21963 37.1345 9.04855 37 8.888C36.8655 9.04855 36.728 9.21963 36.5909 9.39959C35.6536 10.6298 35 11.9336 35 13C35 14.1046 35.8954 15 37 15ZM37 17C39.2091 17 41 15.2091 41 13C41 9.5 37 6 37 6C37 6 33 9.5 33 13C33 15.2091 34.7909 17 37 17Z" fill="black"/>
<path fill-rule="evenodd" clip-rule="evenodd" d="M29.2317 33C27.9921 30.3863 25.9601 29 24 29C22.0399 29 20.0079 30.3863 18.7683 33L29.2317 33ZM24 27C27.2305 27 30.0305 29.4383 31.4065 33C31.7939 34.0028 30.9867 35 29.9116 35L18.0884 35C17.0133 35 16.2061 34.0028 16.5935 33C17.9695 29.4383 20.7695 27 24 27Z" fill="black"/>
<path fill-rule="evenodd" clip-rule="evenodd" d="M15.6783 27.2652L22.1783 33.2652L20.8217 34.7348L14.3217 28.7348L15.6783 27.2652Z" fill="black"/>
<path d="M17 28C17 29.1046 16.1046 30 15 30C13.8954 30 13 29.1046 13 28C13 26.8954 13.8954 26 15 26C16.1046 26 17 26.8954 17 28Z" fill="black"/>
</svg>

<svg
  xmlns="http://www.w3.org/2000/svg"
  width="24"
  height="24"
  viewBox="0 0 24 24"
  fill="none"
  stroke="currentColor"
  stroke-width="2"
  stroke-linecap="round"
  stroke-linejoin="round"
>
  <path
    fill-rule="evenodd"
    d="M32.326 8.037A17.9 17.9 0 0 0 24 6C14.059 6 6 14.059 6 24s8.059 18 18 18 18-8.059 18-18c0-2.26-.417-4.424-1.177-6.417a6 6 0 0 1-1.75 1.038c.6 1.681.927 3.492.927 5.379 0 8.837-7.163 16-16 16S8 32.837 8 24 15.163 8 24 8c2.722 0 5.286.68 7.53 1.88.217-.632.49-1.25.796-1.843"
    clip-rule="evenodd"
  />
  <path d="M14.236 20.43c2.024.751 4.249.26 6.16-1.555.334.99-.55 3.071-2.732 3.393s-3.575-.927-3.428-1.838" />
  <path
    fill-rule="evenodd"
    d="M14.807 22.233c-.683-.438-1.183-1.145-1.064-1.883a.5.5 0 0 1 .668-.389c1.818.675 3.846.256 5.642-1.448a.5.5 0 0 1 .818.203c.231.689.024 1.618-.48 2.381a3.8 3.8 0 0 1-2.654 1.666c-1.198.177-2.216-.073-2.93-.53m.54-.842c.491.314 1.26.528 2.244.383a2.8 2.8 0 0 0 1.965-1.228c.125-.19.218-.379.283-.559-1.506 1.083-3.165 1.482-4.773 1.188q.115.109.28.216"
    clip-rule="evenodd"
  />
  <path d="M33.325 20.43c-2.024.751-4.248.26-6.16-1.555-.333.99.55 3.071 2.733 3.393 2.181.322 3.574-.927 3.427-1.838" />
  <path
    fill-rule="evenodd"
    d="M32.754 22.233c.683-.438 1.184-1.145 1.065-1.883a.5.5 0 0 0-.668-.389c-1.818.675-3.846.256-5.642-1.448a.5.5 0 0 0-.818.203c-.232.689-.024 1.618.48 2.381a3.8 3.8 0 0 0 2.653 1.666c1.199.177 2.216-.073 2.93-.53m-.54-.842c-.49.314-1.26.528-2.243.383a2.8 2.8 0 0 1-1.966-1.228 2.7 2.7 0 0 1-.283-.559c1.506 1.083 3.166 1.482 4.773 1.188q-.115.109-.28.216"
    clip-rule="evenodd"
  />
  <path
    fill-rule="evenodd"
    d="M37 15a2 2 0 0 0 2-2c0-1.066-.654-2.37-1.59-3.6a14 14 0 0 0-.41-.512q-.203.241-.41.512C35.655 10.63 35 11.934 35 13a2 2 0 0 0 2 2m0 2a4 4 0 0 0 4-4c0-3.5-4-7-4-7s-4 3.5-4 7a4 4 0 0 0 4 4"
    clip-rule="evenodd"
  />
  <path
    fill-rule="evenodd"
    d="M29.232 33c-1.24-2.614-3.272-4-5.232-4s-3.992 1.386-5.232 4zM24 27c3.23 0 6.03 2.438 7.407 6 .387 1.003-.42 2-1.495 2H18.088c-1.075 0-1.882-.997-1.495-2 1.377-3.562 4.177-6 7.407-6"
    clip-rule="evenodd"
  />
  <path
    fill-rule="evenodd"
    d="m15.678 27.265 6.5 6-1.356 1.47-6.5-6z"
    clip-rule="evenodd"
  />
  <path d="M17 28a2 2 0 1 1-4 0 2 2 0 0 1 4 0" />
</svg>
